X: 13483
T: Flower Of The Flock, The
R: reel
M: 4/4
K: Gmajor
DEGA BG~G2|cGBG AGEG|DEGA ~B2Be|1 dBAB ~G2GE:|2 dBAB ~G2G2||
~g2ge dBGB|A2AB AGEF|~g2ge d2 (3Bcd|ea~a2 agef|
~g2ge dBGB|A2AB AGEG|DEGA ~B2Be|dBAB ~G2GE||

